logo/openjs-foundation-icon.svg

<?xml version="1.0" encoding="UTF-8"?>
<svg width="256px" height="296px" viewBox="0 0 256 296" version="1.1" xmlns="http://www.w3.org/2000/svg" xmlns:xlink="http://www.w3.org/1999/xlink" preserveAspectRatio="xMidYMid">
    <title>OpenJS Fondation</title>
    <defs>
        <linearGradient x1="20.3935593%" y1="15.8494593%" x2="79.5710016%" y2="84.1511768%" id="OpenJS-linearGradient-1">
            <stop stop-color="#0075C9" offset="21.45%"></stop>
            <stop stop-color="#80BC00" offset="70.67%"></stop>
            <stop stop-color="#FDE021" offset="100%"></stop>
        </linearGradient>
    </defs>
    <g stroke="none" stroke-width="1" fill="none" fill-rule="evenodd">
        <path d="M255.060206,73.3979442 L128.751836,0.46989721 L127.906021,0 L127.060206,0.46989721 L1.50367107,73.0220264 L0.845814978,73.3979442 L0,73.8678414 L0,221.603524 L0.845814978,222.073421 L127.154185,295.001468 L128,295.471366 L128.845815,295.001468 L253.462555,223.107195 L255.154185,222.167401 L256,221.697504 L256,73.8678414 L255.060206,73.3979442 Z M115.312775,18.8898678 L84.3935389,72.3641703 L22.6490455,72.3641703 L115.312775,18.8898678 Z M79.318649,81.1982379 L64.845815,106.290749 L21.4273128,81.1982379 L79.318649,81.1982379 Z M68.041116,118.226138 L119.071953,147.735683 L68.041116,177.245228 L51.030837,147.735683 L68.041116,118.226138 Z M60.5227606,113.903084 L46.0499266,138.995595 L17.010279,88.8105727 L60.5227606,113.903084 Z M10.0558003,94.2613803 L40.9750367,147.735683 L10.0558003,201.209985 L10.0558003,94.2613803 Z M45.9559471,156.56975 L60.4287812,181.662261 L17.010279,206.754772 L45.9559471,156.56975 Z M64.845815,189.180617 L79.318649,214.273128 L21.4273128,214.273128 L64.845815,189.180617 Z M22.6490455,223.107195 L84.3935389,223.107195 L115.312775,276.581498 L22.6490455,223.107195 Z M123.582966,273.292217 L94.6372981,223.107195 L123.582966,223.107195 L123.582966,273.292217 Z M123.582966,214.273128 L89.4684288,214.273128 L72.4581498,184.763583 L123.488987,155.254038 L123.488987,214.273128 L123.582966,214.273128 Z M123.582966,140.123348 L72.5521292,110.613803 L89.5624082,81.1042584 L123.582966,81.1042584 L123.582966,140.123348 Z M123.582966,72.3641703 L94.6372981,72.3641703 L123.582966,22.1791483 L123.582966,72.3641703 Z M195.38326,113.903084 L238.801762,88.8105727 L209.856094,138.995595 L195.38326,113.903084 Z M204.781204,147.735683 L187.770925,177.245228 L136.740088,147.735683 L187.770925,118.226138 L204.781204,147.735683 Z M190.966226,106.290749 L176.493392,81.1982379 L234.384728,81.1982379 L190.966226,106.290749 Z M233.162996,72.3641703 L171.418502,72.3641703 L140.593245,18.8898678 L233.162996,72.3641703 Z M132.323054,22.1791483 L161.268722,72.3641703 L132.323054,72.3641703 L132.323054,22.1791483 L132.323054,22.1791483 Z M132.323054,81.1982379 L166.343612,81.1982379 L183.353891,110.707783 L132.323054,140.217327 L132.323054,81.1982379 Z M132.323054,155.348018 L183.353891,184.857562 L166.343612,214.273128 L132.323054,214.273128 L132.323054,155.348018 Z M132.323054,223.107195 L161.268722,223.107195 L132.323054,273.292217 L132.323054,223.107195 Z M140.593245,276.581498 L171.418502,223.107195 L233.162996,223.107195 L140.593245,276.581498 Z M176.493392,214.273128 L190.966226,189.180617 L234.384728,214.273128 L176.493392,214.273128 Z M195.38326,181.568282 L209.856094,156.475771 L238.801762,206.660793 L195.38326,181.568282 Z M245.85022,201.209985 L214.930984,147.735683 L245.85022,94.2613803 L245.85022,201.209985 Z" fill="url(#OpenJS-linearGradient-1)"></path>
    </g>
</svg>

<svg viewBox="0 0 256 296" xmlns="http://www.w3.org/2000/svg"><defs><linearGradient id="a" x1="20.393%" x2="79.571%" y1="15.849%" y2="84.151%"><stop offset="21.45%" stop-color="#0075C9"/><stop offset="70.67%" stop-color="#80BC00"/><stop offset="100%" stop-color="#FDE021"/></linearGradient></defs><path fill="url(#a)" fill-rule="evenodd" d="M255.06 73.39L128.75.46l-.85-.47 -.85.46L1.49 73l-.66.37 -.85.46v147.73l.84.46 126.3 72.92 .84.46 .84-.47 124.61-71.9 1.69-.94 .84-.47V73.79l-.94-.47ZM115.31 18.88L84.39 72.35H22.64l92.66-53.48Zm-36 62.3l-14.48 25.09 -43.42-25.1H79.3ZM68.03 118.2l51.03 29.5 -51.04 29.5L51 147.69l17.01-29.51Zm-7.52-4.33l-14.48 25.09 -29.04-50.19 43.51 25.09ZM10.04 94.22l30.91 53.47 -30.92 53.47V94.21Zm35.9 62.3l14.47 25.09 -43.42 25.09 28.94-50.19Zm18.88 32.61l14.47 25.09h-57.9l43.41-25.1Zm-42.2 33.92h61.74l30.91 53.47 -92.67-53.48Zm100.93 50.18L94.6 223.04h28.94v50.18Zm0-59.02H89.43L72.41 184.7l51.03-29.51v59.01h.09Zm0-74.15l-51.04-29.51 17.01-29.51h34.02v59.01Zm0-67.76H94.6l28.94-50.19v50.18Zm71.8 41.53l43.41-25.1 -28.95 50.18 -14.48-25.1Zm9.39 33.83l-17.02 29.5 -51.04-29.51 51.03-29.51 17.01 29.5Zm-13.82-41.45l-14.48-25.1h57.89l-43.42 25.09Zm42.19-33.93h-61.75L140.53 18.8l92.56 53.47ZM132.27 22.09l28.94 50.18h-28.95V22.08v0Zm0 59.01h34.02l17.01 29.5 -51.04 29.5V81.08Zm0 74.14l51.03 29.5 -17.02 29.41h-34.03v-58.93Zm0 67.75h28.94l-28.95 50.18v-50.19Zm8.27 53.47l30.82-53.48h61.74l-92.57 53.47Zm35.9-62.31l14.47-25.1 43.41 25.09h-57.9Zm18.88-32.71l14.47-25.1 28.94 50.18 -43.42-25.1Zm50.46 19.64l-30.92-53.48 30.91-53.48v106.94Z"/></svg>
